X:106
%%etbk:tnset id:37,pos:3,rep:3x,ant:
%%etbk:wsite http://www.thesession.org/tunes/display/1573
%%etbk:color #ffffcc
%%etbk:pldat 2016-07-12T16:42,2016-03-20T15:10,2016-03-17T18:43,2016-01-13T17:06,2015-12-29T16:12,2015-12-23T16:38,2015-12-21T18:56,2015-11-29T15:08,2015-02-06T17:59,2014-12-28T14:23,2014-12-14T16:10,2014-09-08T18:22,2014-05-13T18:52,2014-05-02T17:30,2014-04-27T12:52,2014-04-07T19:23,2014-03-26T17:41,2014-03-25T16:54,2014-02-16T14:10,2014-02-07T15:05,2014-02-06T18:10,2013-12-11T18:43,2013-05-01T16:28
T: Hut In The Bog, The
Z: Piano Box Version by Martin Fleischmann
H: Created 2013-02-19 /  Last Modified 2014-03-26
M: 4/4
L: 1/8
R: reel
K: Emin
|: "em"!5!B!1!E !3!(3E!2!E!1!E !2!G2GA | !4!B!1!E !3!(3E!2!E!1!E !3!B!4!ded | !3![B3E]E !4!ded!3!B | "D"!1!AB!1!A!3!F !1!DE!3!F!4!A:|
"G"!3!B3A G2GA | !3!B!1!G !3!(3G!2!G!1!G !2!B!3!d!5!gd | !2!B2!3!BA G3G | "D"!2!A2!1!DD !2!ABBA |
"G"!3!BdBA G2GA | !3!B!1!G !3!(3G!2!G!1!G !2!B!3!d!5!!3!g2 | !3!gbaf !3!g{a}!3!g!3!ge | "D"!1!de!1!d!3!B !2!AAGA ||


